assets/products/gmaildataextractor/logo.svg

<?xml version="1.0" encoding="UTF-8" standalone="no"?>
<svg
   version="1.1"
   id="Layer_1"
   x="0px"
   y="0px"
   width="100%"
   viewBox="0 0 500 500"
   enable-background="new 0 0 500 500"
   xml:space="preserve"
   sodipodi:docname="logo.svg"
   inkscape:version="1.4 (86a8ad7, 2024-10-11)"
   xmlns:inkscape="http://www.inkscape.org/namespaces/inkscape"
   xmlns:sodipodi="http://sodipodi.sourceforge.net/DTD/sodipodi-0.dtd"
   xmlns="http://www.w3.org/2000/svg"
   xmlns:svg="http://www.w3.org/2000/svg"><defs
   id="defs12">
      
      
      
      

      
      

      
   </defs><sodipodi:namedview
   id="namedview12"
   pagecolor="#ffffff"
   bordercolor="#000000"
   borderopacity="0.25"
   inkscape:showpageshadow="2"
   inkscape:pageopacity="0.0"
   inkscape:pagecheckerboard="0"
   inkscape:deskcolor="#d1d1d1"
   inkscape:zoom="2.334"
   inkscape:cx="249.78578"
   inkscape:cy="250"
   inkscape:window-width="2560"
   inkscape:window-height="1369"
   inkscape:window-x="1912"
   inkscape:window-y="-8"
   inkscape:window-maximized="1"
   inkscape:current-layer="g3" />
   
   <!-- Background circle -->
   <rect
   x="0"
   y="0"
   width="100%"
   height="100%"
   rx="100"
   fill="#FFB900"
   id="rect1" />

   <!-- Gmail envelope icon -->
   <g
   fill="none"
   stroke="#2f4f4f"
   stroke-width="42"
   id="g1"
   transform="matrix(0.6,0,0,0.6,10,-50)">
         <path
   d="m 80,220 v 160 c 0,15 10,25 25,25 h 250 c 15,0 25,-10 25,-25 V 220 c 0,-15 -10,-25 -25,-25 H 105 c -15,0 -25,10 -25,25 z"
   id="path1" />
      </g><g
   fill="#fefeff"
   id="g2"
   transform="matrix(0.6,0,0,0.6,10,-50)">
         <!-- Envelope body -->
         <path
   opacity="1"
   stroke="none"
   d="m 80,220 v 160 c 0,15 10,25 25,25 h 250 c 15,0 25,-10 25,-25 V 220 c 0,-15 -10,-25 -25,-25 H 105 c -15,0 -25,10 -25,25 z"
   id="path2" />
      </g><g
   fill="none"
   stroke="#2f4f4f"
   stroke-width="42"
   id="g3"
   transform="matrix(0.6,0,0,0.6,-207.22365,9.982862)">
         <path
   d="m 440.52313,129.60575 152.23037,79.72014 152.23037,-79.72014 v -15.94403 c 0,-11.95802 -10.14869,-19.930037 -25.37173,-19.930037 H 465.89486 c -15.22304,0 -25.37173,7.972017 -25.37173,19.930037 z"
   id="path3"
   style="stroke-width:37.7779" />
      </g><g
   fill="none"
   stroke="#2f4f4f"
   id="g4"
   transform="matrix(0.6,0,0,0.6,10,-50)">
         <!-- Envelope flap -->
         <path
   opacity="1"
   stroke="none"
   d="M 80,220 230,320 380,220 v -20 c 0,-15 -10,-25 -25,-25 H 105 c -15,0 -25,10 -25,25 z"
   id="path4" />
      </g>

   <!-- Arrow from envelope to Google Sheets -->
   <g
   transform="translate(330, 170) rotate(25)"
   id="g9">
      <!-- Dark outline for quarter circle arrow path -->
      <path
   d="M -60 -60 A 90 90 0 0 1 60 60"
   fill="none"
   stroke="#2F4F4F"
   stroke-width="64"
   stroke-linecap="round"
   id="path5" />
      <!-- Quarter circle arrow path -->
      <path
   d="M -60 -60 A 90 90 0 0 1 60 60"
   fill="none"
   stroke="#ffffff"
   stroke-width="32"
   stroke-linecap="round"
   id="path6" />
      <!-- Dark outline for arrow head -->
      <g
   transform="translate(60, 60) rotate(15)"
   id="g7">
         <path
   d="M -35 -35 L 0 0 L 35 -35"
   fill="none"
   stroke="#2F4F4F"
   stroke-width="64"
   stroke-linecap="round"
   stroke-linejoin="round"
   id="path7" />
      </g>
      <!-- Arrow head -->
      <g
   transform="translate(60, 60) rotate(15)"
   id="g8">
         <path
   d="M -35 -35 L 0 0 L 35 -35"
   fill="none"
   stroke="#ffffff"
   stroke-width="32"
   stroke-linecap="round"
   stroke-linejoin="round"
   id="path8" />
      </g>
   </g>

   <!-- Google Sheets group -->
   <g
   transform="translate(110, 220) scale(2.8)"
   id="g12">
      <!-- Small right triangle behind Google Sheets -->
      <g
   transform="translate(59, 30) rotate(-90)"
   id="g10">
         <path
   d="M 0 0 L 20 0 L 0 20 Z"
   fill="#ffffff"
   id="path9" />
      </g>
      
      <!-- White background for Google Sheets -->
      <rect
   x="20"
   y="30"
   width="60"
   height="60"
   fill="#ffffff"
   rx="4"
   id="rect10" />
      <!-- Second white rectangle on top part -->
      <rect
   x="20"
   y="10"
   width="40"
   height="25"
   fill="#ffffff"
   rx="4"
   id="rect11" />
      
      <svg
   width="100px"
   height="100px"
   viewBox="0 0 192 192"
   fill="none"
   version="1.1"
   id="svg12">
         <path
   stroke="#2F4F4F"
   stroke-linejoin="round"
   stroke-width="12"
   d="M96 89H68v24m28-24h28v24M96 89v48m0 0h28v-24m-28 24H68v-24m56 0H68"
   id="path11" />
         <path
   fill="#2F4F4F"
   fill-rule="evenodd"
   d="M52 28a2 2 0 0 0-2 2v132a2 2 0 0 0 2 2h88a2 2 0 0 0 2-2V62h-28a6 6 0 0 1-6-6V28H52Zm68 8.485L133.515 50H120V36.485ZM38 30c0-7.732 6.268-14 14-14h62c1.591 0 3.117.632 4.243 1.757l34 34A6 6 0 0 1 154 56v106c0 7.732-6.268 14-14 14H52c-7.732 0-14-6.268-14-14V30Z"
   clip-rule="evenodd"
   id="path12" />
      </svg>
   </g>

</svg>

<?xml version="1.0" encoding="UTF-8" standalone="no"?>
<svg
   version="1.1"
   id="Layer_1"
   x="0px"
   y="0px"
   width="100%"
   viewBox="0 0 500 500"
   enable-background="new 0 0 500 500"
   xml:space="preserve"
   xmlns="http://www.w3.org/2000/svg">
   
   <!-- Background circle -->
   <rect
      x="0"
      y="0"
      width="100%"
      height="100%"
      rx="100"
      fill="#FFB900"
      id="rect1" />

   <!-- Gmail envelope icon -->
   <g transform="translate(10, -50) scale(0.6)">
      <!-- Dark outline for envelope body -->
      <g fill="none" stroke="#2F4F4F" stroke-width="42">
         <path d="
         M80,220
            L80,380
            C80,395 90,405 105,405
            L355,405
            C370,405 380,395 380,380
            L380,220
            C380,205 370,195 355,195
            L105,195
            C90,195 80,205 80,220
         z"/>
      </g>
      
      <g fill="#FEFEFF">
         <!-- Envelope body -->
         <path opacity="1.000000" stroke="none"
            d="
         M80,220
            L80,380
            C80,395 90,405 105,405
            L355,405
            C370,405 380,395 380,380
            L380,220
            C380,205 370,195 355,195
            L105,195
            C90,195 80,205 80,220
         z"/>
      </g>

      <!-- Dark outline for envelope flap -->
      <g fill="none" stroke="#2F4F4F" stroke-width="42">
         <path d="
         M80,220
            L230,320
            L380,220
            L380,200
            C380,185 370,175 355,175
            L105,175
            C90,175 80,185 80,200
            L80,220
         z"/>
      </g>

      <g fill="none" stroke="#2F4F4F">
         <!-- Envelope flap -->
         <path opacity="1.000000" stroke="none"
            d="
         M80,220
            L230,320
            L380,220
            L380,200
            C380,185 370,175 355,175
            L105,175
            C90,175 80,185 80,200
            L80,220
         z"/>
      </g>
   </g>

   <!-- Arrow from envelope to Google Sheets -->
   <g transform="translate(330, 170) rotate(25)">
      <!-- Dark outline for quarter circle arrow path -->
      <path d="M -60 -60 A 90 90 0 0 1 60 60" fill="none" stroke="#2F4F4F" stroke-width="64" stroke-linecap="round"/>
      <!-- Quarter circle arrow path -->
      <path d="M -60 -60 A 90 90 0 0 1 60 60" fill="none" stroke="#ffffff" stroke-width="32" stroke-linecap="round"/>
      <!-- Dark outline for arrow head -->
      <g transform="translate(60, 60) rotate(15)">
         <path d="M -35 -35 L 0 0 L 35 -35" fill="none" stroke="#2F4F4F" stroke-width="64" stroke-linecap="round" stroke-linejoin="round"/>
      </g>
      <!-- Arrow head -->
      <g transform="translate(60, 60) rotate(15)">
         <path d="M -35 -35 L 0 0 L 35 -35" fill="none" stroke="#ffffff" stroke-width="32" stroke-linecap="round" stroke-linejoin="round"/>
      </g>
   </g>

   <!-- Google Sheets group -->
   <g transform="translate(110, 220) scale(2.8)">
      <!-- Small right triangle behind Google Sheets -->
      <g transform="translate(59, 30) rotate(-90)">
         <path d="M 0 0 L 20 0 L 0 20 Z" fill="#ffffff"/>
      </g>
      
      <!-- White background for Google Sheets -->
      <rect x="20" y="30" width="60" height="60" fill="#ffffff" rx="4"/>
      <!-- Second white rectangle on top part -->
      <rect x="20" y="10" width="40" height="25" fill="#ffffff" rx="4"/>
      
      <svg width="100px" height="100px" viewBox="0 0 192 192" xmlns="http://www.w3.org/2000/svg" fill="none">
         <path stroke="#2F4F4F" stroke-linejoin="round" stroke-width="12" d="M96 89H68v24m28-24h28v24M96 89v48m0 0h28v-24m-28 24H68v-24m56 0H68"/>
         <path fill="#2F4F4F" fill-rule="evenodd" d="M52 28a2 2 0 0 0-2 2v132a2 2 0 0 0 2 2h88a2 2 0 0 0 2-2V62h-28a6 6 0 0 1-6-6V28H52Zm68 8.485L133.515 50H120V36.485ZM38 30c0-7.732 6.268-14 14-14h62c1.591 0 3.117.632 4.243 1.757l34 34A6 6 0 0 1 154 56v106c0 7.732-6.268 14-14 14H52c-7.732 0-14-6.268-14-14V30Z" clip-rule="evenodd"/>
      </svg>
   </g>

</svg>
